X: 202
T: Col. Ridley's Quick March
C: Abraham Mackintosh
R: jig
M: 6/8
L: 1/8
Z: 2011 John Chambers <jc:trillian.mit.edu>
B: Abraham Mackintosh "A Collection of Strathspeys, Reels, Jigs &c.", Newcastle, after 1797, p.20
F: http://imslp.info/files/imglnks/usimg/a/a8/IMSLP80796-PMLP164326-Abraham_Mackintosh_coll.pdf
K: A
V: 1
e/d/ |\
c2A ABc | BGE E2d | cAc edc | B2B Bed |\
c2A ABc | BGE E2d | c/d/ec dBG | AAA A2 :|
|: e/d/ |\
cde edc | def fed | cAc edc | B2B Bed |\
cde edc | def fga | cAc dBG | AAA A2 :|
V: 2 clef=bass middle=d
z |\
[a3A3] [a3A3] | [e3E3] [e3E3] | [a3A3] [a3A3] | [e3E3] [e3E3] |\
[a3A3] [a3A3] | [e3E3] [e3E3] | [a3A3] [e3E3] | [a3A3] [a2A2] :|
|: z |\
[a3A3] [=g3=G3] | [f3F3] [d3D3] | [a3A3] [a3A3] | [e3E3] [e3E3] |\
[a3A3] [=g3=G3] | [f3F3] [d3D3] | [e3E3] [e3E3] | [a3A3] [a2A2] :|

%%sep 2 1 500

